build/Karasa-Jaga/scalable/devices/input-keyboard-symbolic.svg

<svg height="16" width="16" xmlns="http://www.w3.org/2000/svg"><path d="m1.21875 4.03125c-.49584111 0-.875.3867651-.875.90625v7.125c0 .519485.37915889.9375.875.9375h13.5625c.495842 0 .875-.418015.875-.9375v-7.125c0-.5194849-.379158-.90625-.875-.90625zm.15625 1.46875h2.09375v1.4375h-2.09375zm2.84375 0h1.90625v1.4375h-1.90625zm2.65625 0h1.875v1.4375h-1.875zm2.5625 0h1.90625v1.4375h-1.90625zm2.65625 0h2.5625v1.4375h-2.5625zm-10.75 2.21875h2.96875v1.4375h-2.96875zm3.8125 0h1.875v1.4375h-1.875zm2.59375 0h1.875v1.4375h-1.875zm2.625 0h1.90625v1.4375h-1.90625zm2.71875 0h1.5625v1.4375h-1.5625zm-11.75 2.34375h2.375v1.4375h-2.375zm2.8125 0h1.28125v1.4375h-1.28125zm1.71875 0h.125.09375.71875 1.90625.71875 1.03125.84375v1.4375h-.84375-1.03125-.71875-1.90625-.71875-.09375-.125zm6.1875 0h2.5625v1.4375h-2.5625z" fill="#bebebe"/></svg>

<?xml version="1.0" encoding="UTF-8" standalone="no"?>
<!-- Created with Inkscape (http://www.inkscape.org/) -->

<svg
   xmlns:osb="http://www.openswatchbook.org/uri/2009/osb"
   xmlns:dc="http://purl.org/dc/elements/1.1/"
   xmlns:cc="http://creativecommons.org/ns#"
   xmlns:rdf="http://www.w3.org/1999/02/22-rdf-syntax-ns#"
   xmlns:svg="http://www.w3.org/2000/svg"
   xmlns="http://www.w3.org/2000/svg"
   xmlns:xlink="http://www.w3.org/1999/xlink"
   xmlns:sodipodi="http://sodipodi.sourceforge.net/DTD/sodipodi-0.dtd"
   xmlns:inkscape="http://www.inkscape.org/namespaces/inkscape"
   width="16px"
   height="16px"
   id="svg12722"
   version="1.1"
   inkscape:version="0.48.3.1 r9886"
   sodipodi:docname="input-keyboard-symbolic.svg">
  <defs
     id="defs12724">
    <linearGradient
       gradientUnits="userSpaceOnUse"
       id="linearGradient3696"
       y2="21"
       x2="15"
       y1="2"
       x1="15">
      <stop
         offset="0"
         style="stop-color:#eeeeec;stop-opacity:1"
         id="stop3700" />
      <stop
         offset="0.79220003"
         style="stop-color:#babdb6;stop-opacity:1"
         id="stop3702" />
      <stop
         offset="1"
         style="stop-color:#a1a59b;stop-opacity:1"
         id="stop3704" />
    </linearGradient>
    <linearGradient
       gradientUnits="userSpaceOnUse"
       id="linearGradient4117"
       y2="34.612"
       x2="22.402"
       y1="15.722"
       x1="22.146999">
      <stop
         offset="0"
         style="stop-color:#ffffff;stop-opacity:1"
         id="stop4113" />
      <stop
         offset="1"
         style="stop-color:#ffffff;stop-opacity:0"
         id="stop4115" />
    </linearGradient>
    <linearGradient
       id="linearGradient5841">
      <stop
         offset="0"
         style="stop-color:#37e700;stop-opacity:1"
         id="stop5843" />
      <stop
         offset="0.5"
         style="stop-color:#3dfe00;stop-opacity:1"
         id="stop5849" />
      <stop
         offset="1"
         style="stop-color:#2aad00;stop-opacity:1"
         id="stop5845" />
    </linearGradient>
    <linearGradient
       id="linearGradient3785">
      <stop
         style="stop-color:#384880;stop-opacity:1;"
         offset="0"
         id="stop3787" />
      <stop
         style="stop-color:#000000;stop-opacity:1;"
         offset="1"
         id="stop3789" />
    </linearGradient>
    <linearGradient
       y2="520.1709"
       y1="408.39655"
       x2="365.97757"
       x1="365.51193"
       id="linearGradient3189"
       xlink:href="#linearGradient3785"
       gradientUnits="userSpaceOnUse"
       gradientTransform="matrix(0.08112299,0,0,0.07855526,540.8143,254.8467)"
       inkscape:collect="always" />
    <filter
       id="filter7554"
       color-interpolation-filters="sRGB"
       inkscape:collect="always">
      <feBlend
         mode="darken"
         in2="BackgroundImage"
         id="feBlend7556"
         inkscape:collect="always" />
    </filter>
    <linearGradient
       osb:paint="solid"
       id="linearGradient5606">
      <stop
         style="stop-color:#000000;stop-opacity:1;"
         offset="0"
         id="stop5608" />
    </linearGradient>
  </defs>
  <sodipodi:namedview
     id="base"
     pagecolor="#ffffff"
     bordercolor="#666666"
     borderopacity="1.0"
     inkscape:pageopacity="0.0"
     inkscape:pageshadow="2"
     inkscape:zoom="5.6568543"
     inkscape:cx="14.560795"
     inkscape:cy="41.161511"
     inkscape:current-layer="layer1"
     showgrid="true"
     inkscape:grid-bbox="true"
     inkscape:document-units="px"
     inkscape:window-width="1366"
     inkscape:window-height="696"
     inkscape:window-x="0"
     inkscape:window-y="0"
     inkscape:window-maximized="1" />
  <metadata
     id="metadata12727">
    <rdf:RDF>
      <cc:Work
         rdf:about="">
        <dc:format>image/svg+xml</dc:format>
        <dc:type
           rdf:resource="http://purl.org/dc/dcmitype/StillImage" />
        <dc:title />
      </cc:Work>
    </rdf:RDF>
  </metadata>
  <g
     id="layer1"
     inkscape:label="Layer 1"
     inkscape:groupmode="layer">
    <path
       style="fill:#bebebe;fill-opacity:1;stroke:none"
       d="M 1.21875 4.03125 C 0.72290889 4.03125 0.34375 4.4180151 0.34375 4.9375 L 0.34375 12.0625 C 0.34375 12.581985 0.72290889 13 1.21875 13 L 14.78125 13 C 15.277092 13 15.65625 12.581985 15.65625 12.0625 L 15.65625 4.9375 C 15.65625 4.4180151 15.277092 4.03125 14.78125 4.03125 L 1.21875 4.03125 z M 1.375 5.5 L 3.46875 5.5 L 3.46875 6.9375 L 1.375 6.9375 L 1.375 5.5 z M 4.21875 5.5 L 6.125 5.5 L 6.125 6.9375 L 4.21875 6.9375 L 4.21875 5.5 z M 6.875 5.5 L 8.75 5.5 L 8.75 6.9375 L 6.875 6.9375 L 6.875 5.5 z M 9.4375 5.5 L 11.34375 5.5 L 11.34375 6.9375 L 9.4375 6.9375 L 9.4375 5.5 z M 12.09375 5.5 L 14.65625 5.5 L 14.65625 6.9375 L 12.09375 6.9375 L 12.09375 5.5 z M 1.34375 7.71875 L 4.3125 7.71875 L 4.3125 9.15625 L 1.34375 9.15625 L 1.34375 7.71875 z M 5.15625 7.71875 L 7.03125 7.71875 L 7.03125 9.15625 L 5.15625 9.15625 L 5.15625 7.71875 z M 7.75 7.71875 L 9.625 7.71875 L 9.625 9.15625 L 7.75 9.15625 L 7.75 7.71875 z M 10.375 7.71875 L 12.28125 7.71875 L 12.28125 9.15625 L 10.375 9.15625 L 10.375 7.71875 z M 13.09375 7.71875 L 14.65625 7.71875 L 14.65625 9.15625 L 13.09375 9.15625 L 13.09375 7.71875 z M 1.34375 10.0625 L 3.71875 10.0625 L 3.71875 11.5 L 1.34375 11.5 L 1.34375 10.0625 z M 4.15625 10.0625 L 5.4375 10.0625 L 5.4375 11.5 L 4.15625 11.5 L 4.15625 10.0625 z M 5.875 10.0625 L 6 10.0625 L 6.09375 10.0625 L 6.8125 10.0625 L 8.71875 10.0625 L 9.4375 10.0625 L 10.46875 10.0625 L 11.3125 10.0625 L 11.3125 11.5 L 10.46875 11.5 L 9.4375 11.5 L 8.71875 11.5 L 6.8125 11.5 L 6.09375 11.5 L 6 11.5 L 5.875 11.5 L 5.875 10.0625 z M 12.0625 10.0625 L 14.625 10.0625 L 14.625 11.5 L 12.0625 11.5 L 12.0625 10.0625 z "
       id="rect15256" />
  </g>
</svg>
